X:110
T:Tipler’s Reel,The. WM.110
M:C
L:1/8
Q:1/2=100
S:Wm.Mittell’s MS, New Romney,Kent,1799
R:.Reel
O:England
A:Kent
Z:vmp.Chris Partington
K:A
eAcA fecf|eAcA BE-Ef|eAcA fefa|efed cAA2:|!
|:BE-Ed cA-Ac|BE-Ed edce|fAcA eAaf|ecBd cAA2:|

